.icons/Gruvbox-Plus-Dark/apps/16/fillets.svg

<svg width="16" height="16" version="1.1" xmlns="http://www.w3.org/2000/svg">
  <defs>
    <style type="text/css" id="current-color-scheme">.ColorScheme-Text { color:#ebdbb2; } .ColorScheme-Highlight { color:#458588; }</style>
  </defs>
  <path class="ColorScheme-Text" fill="currentColor" d="m4.706 6.867c0-0.493-0.318-0.661-0.706-0.373s-0.706 0.692-0.706 0.897c0 0.206 0.318 0.374 0.706 0.374s0.706-0.404 0.706-0.898zm-2.373 2.192c-1.244-1.384 0.236-3.177 2.624-3.177 0.92 0 2.34 0.477 3.156 1.059 1.47 1.048 1.47 1.07 0 2.118-0.816 0.582-2.236 1.059-3.156 1.059s-2.1-0.477-2.624-1.059zm10.87-3e-3c-0.721-0.967-0.676-1.389 0.256-2.427 1.053-1.172 1.129-1.093 1.129 1.17 0 2.753-0.16 2.898-1.385 1.257zm-4.293 1.429c1.89-1.486 1.961-1.486 3.797 0 2.802 2.269 3.293 1.898 3.293-2.485s-0.491-4.754-3.293-2.485c-1.836 1.486-1.907 1.486-3.797 0-1.059-0.833-2.777-1.515-3.818-1.515-1.901 0-5.092 2.507-5.092 4s3.191 4 5.092 4c1.041 0 2.759-0.682 3.818-1.515z"/>
</svg>

<svg xmlns="http://www.w3.org/2000/svg" style="isolation:isolate" width="16" height="16" viewBox="0 0 16 16">
 <defs>
  <style id="current-color-scheme" type="text/css">
   .ColorScheme-Text { color:#ebdbb2; } .ColorScheme-Highlight { color:#458588; }
  </style>
  <linearGradient id="arrongin" x1="0%" x2="0%" y1="0%" y2="100%">
   <stop offset="0%" style="stop-color:#d79921; stop-opacity:1"/>
   <stop offset="100%" style="stop-color:#b57614; stop-opacity:1"/>
  </linearGradient>
  <linearGradient id="aurora" x1="0%" x2="0%" y1="0%" y2="100%">
   <stop offset="0%" style="stop-color:#83a598; stop-opacity:1"/>
   <stop offset="100%" style="stop-color:#b16286; stop-opacity:1"/>
  </linearGradient>
  <linearGradient id="fitdance" x1="0%" x2="0%" y1="0%" y2="100%">
   <stop offset="0%" style="stop-color:#8ec07c; stop-opacity:1"/>
   <stop offset="100%" style="stop-color:#458588; stop-opacity:1"/>
  </linearGradient>
  <linearGradient id="oomox" x1="0%" x2="0%" y1="0%" y2="100%">
   <stop offset="0%" style="stop-color:#458588; stop-opacity:1"/>
   <stop offset="100%" style="stop-color:#928374; stop-opacity:1"/>
  </linearGradient>
  <linearGradient id="rainblue" x1="0%" x2="0%" y1="0%" y2="100%">
   <stop offset="0%" style="stop-color:#b8bb26; stop-opacity:1"/>
   <stop offset="100%" style="stop-color:#076678; stop-opacity:1"/>
  </linearGradient>
  <linearGradient id="sunrise" x1="0%" x2="0%" y1="0%" y2="100%">
   <stop offset="0%" style="stop-color: #fe8019; stop-opacity:1"/>
   <stop offset="100%" style="stop-color: #fabd2f; stop-opacity:1"/>
  </linearGradient>
  <linearGradient id="telinkrin" x1="0%" x2="0%" y1="0%" y2="100%">
   <stop offset="0%" style="stop-color: #83a598; stop-opacity:1"/>
   <stop offset="100%" style="stop-color: #83a598; stop-opacity:1"/>
  </linearGradient>
  <linearGradient id="60spsycho" x1="0%" x2="0%" y1="0%" y2="100%">
   <stop offset="0%" style="stop-color: #fb4934; stop-opacity:1"/>
   <stop offset="25%" style="stop-color: #fabd2f; stop-opacity:1"/>
   <stop offset="50%" style="stop-color: #fe8019; stop-opacity:1"/>
   <stop offset="100%" style="stop-color: #689d6a; stop-opacity:1"/>
  </linearGradient>
  <linearGradient id="90ssummer" x1="0%" x2="0%" y1="0%" y2="100%">
   <stop offset="0%" style="stop-color: #b16286; stop-opacity:1"/>
   <stop offset="20%" style="stop-color: #8ec07c; stop-opacity:1"/>
   <stop offset="50%" style="stop-color: #fabd2f; stop-opacity:1"/>
   <stop offset="100%" style="stop-color: #458588; stop-opacity:1"/>
  </linearGradient>
  <linearGradient id="cyberneon" x1="0%" x2="0%" y1="0%" y2="100%">
    <stop offset="0" style="stop-color:#83a598; stop-opacity:1"/>
    <stop offset="1" style="stop-color:#b16286; stop-opacity:1"/>
  </linearGradient>
  <clipPath id="_clipPath_boRNtCCTE9uOIwPNe0BvDrxLyzZVVonM">
   <rect width="16" height="16"/>
  </clipPath>
 </defs>
 <g clip-path="url(#_clipPath_boRNtCCTE9uOIwPNe0BvDrxLyzZVVonM)">
  <rect style="fill:currentColor" class="ColorScheme-Text" fill-opacity="0" width="16" height="16"/>
  <path style="fill:currentColor" class="ColorScheme-Text" fill-rule="evenodd" d="M 4.706 6.867 C 4.706 6.374 4.388 6.206 4 6.494 C 3.612 6.782 3.294 7.186 3.294 7.391 C 3.294 7.597 3.612 7.765 4 7.765 C 4.388 7.765 4.706 7.361 4.706 6.867 Z M 2.333 9.059 C 1.089 7.675 2.569 5.882 4.957 5.882 C 5.877 5.882 7.297 6.359 8.113 6.941 C 9.583 7.989 9.583 8.011 8.113 9.059 C 7.297 9.641 5.877 10.118 4.957 10.118 C 4.037 10.118 2.857 9.641 2.333 9.059 L 2.333 9.059 L 2.333 9.059 L 2.333 9.059 Z M 13.203 9.056 C 12.482 8.089 12.527 7.667 13.459 6.629 C 14.512 5.457 14.588 5.536 14.588 7.799 C 14.588 10.552 14.428 10.697 13.203 9.056 L 13.203 9.056 Z M 8.91 10.485 C 10.8 8.999 10.871 8.999 12.707 10.485 C 15.509 12.754 16 12.383 16 8 C 16 3.617 15.509 3.246 12.707 5.515 C 10.871 7.001 10.8 7.001 8.91 5.515 C 7.851 4.682 6.133 4 5.092 4 C 3.191 4 0 6.507 0 8 C 0 9.493 3.191 12 5.092 12 C 6.133 12 7.851 11.318 8.91 10.485 L 8.91 10.485 L 8.91 10.485 L 8.91 10.485 Z"/>
 </g>
</svg>
